images/yes-no/bg-span.svg

<svg width="397" height="144" viewBox="0 0 397 144" fill="none" xmlns="http://www.w3.org/2000/svg">
<path d="M154.711 0.19868C129.542 0.993402 104.575 3.86323 82.3308 9.16137C71.6881 11.7001 61.9029 14.8789 52.8238 18.389C43.6438 21.9431 35.4222 25.983 28.2094 30.3319C21.047 34.6366 15.297 39.3829 10.9087 44.3499C6.52053 49.3389 3.74637 54.615 2.03143 59.9132C-1.54976 70.951 -0.389655 82.2757 5.4613 93.1369C8.2859 98.4351 12.5228 103.579 17.9198 108.479C23.1655 113.248 29.8235 117.685 37.5911 121.725C45.2075 125.698 54.2865 129.142 64.0718 132.034C74.0083 134.992 85.0545 137.244 96.3529 139.032C107.904 140.864 120.009 142.079 132.165 142.851C144.825 143.646 157.637 144.021 170.398 143.999C183.108 143.999 195.819 143.558 208.479 142.851C221.039 142.123 233.548 141.173 245.855 139.915C258.011 138.679 270.015 137.178 281.768 135.345C293.52 133.535 305.02 131.394 316.066 128.855C326.659 126.427 336.848 123.601 346.33 120.4C355.762 117.221 364.488 113.645 371.903 109.561C375.686 107.486 379.116 105.279 382.142 102.961C385.168 100.643 387.741 98.2143 389.96 95.7418C394.399 90.7307 396.668 85.3442 396.971 79.9578C397.122 77.2646 396.668 74.5934 395.861 71.9223C395.054 69.1849 393.793 66.5138 392.129 63.8426C388.85 58.6548 384.059 53.6658 378.359 48.8974C372.76 44.1953 366.001 39.7802 358.587 35.5858C351.223 31.4356 342.951 27.5945 333.872 24.1507C324.591 20.6186 314.452 17.4839 303.709 14.8569C292.864 12.2078 281.314 10.1106 269.511 8.47703C260.835 7.26287 252.009 6.35777 243.081 5.6955C241.215 5.40852 239.298 5.12154 237.432 4.83455C235.061 4.23851 232.438 3.797 229.815 3.39964C226.839 2.95813 223.712 2.67115 220.585 2.45039C218.769 2.31794 217.004 2.22963 215.188 2.18548C207.723 1.50114 200.207 0.971326 192.642 0.596041C184.773 0.19868 176.904 0 169.036 0C164.244 0 159.503 0.0662268 154.711 0.220756V0.19868ZM168.985 4.23851C172.214 4.23851 175.442 4.28266 178.72 4.37097C172.163 5.18776 165.707 6.13701 159.402 7.26287C154.207 8.19004 149.012 9.11722 143.766 10.0223C140.437 10.6184 137.209 11.3469 133.981 12.0533C129.34 13.0467 124.649 13.9959 120.11 15.0776C98.5218 20.2212 78.6487 26.6894 60.8941 34.1289C52.1176 37.8155 43.896 41.8112 36.7337 46.138C29.6217 50.4207 23.7203 55.0565 19.0295 59.9352C14.1369 65.0568 10.6566 70.4874 8.84074 75.9842C8.38678 71.0172 8.89118 66.0502 10.3539 61.1273C12.2202 55.2552 15.4483 49.4493 20.6435 43.9746C25.1326 39.3829 30.9836 35.056 37.8938 31.0824C46.4685 26.27 56.405 21.9873 67.4008 18.2344C72.2429 16.6229 77.2869 15.1218 82.583 13.7531C88.1313 12.3182 93.9318 11.0819 99.8332 9.97817C113.704 7.46155 128.331 5.85003 143.211 4.94493C151.786 4.45927 160.36 4.23851 168.985 4.23851ZM188.405 5.6072C190.422 5.38644 192.44 5.16569 194.508 4.98908C194.861 4.98908 195.214 5.03323 195.517 5.05531C196.122 5.09946 196.677 5.12154 197.282 5.16569C196.223 5.23191 195.163 5.27607 194.155 5.34229C191.027 5.54097 187.9 5.76173 184.823 6.02664C186.034 5.89418 187.194 5.73965 188.405 5.6072ZM215.894 8.85231C222.804 8.83024 229.664 9.07307 236.473 9.44835C236.927 9.47043 237.381 9.51458 237.785 9.53665C241.971 10.1768 246.158 10.8833 250.243 11.6338C267.695 14.901 284.29 19.0071 299.371 24.0845C312.435 28.5658 324.288 33.6874 334.527 39.4491C343.102 44.3719 350.567 49.7142 356.216 55.4097C360.957 60.443 364.186 65.7411 365.951 71.1276C367.262 75.7634 367.262 80.4876 365.901 85.1235C364.387 89.7373 361.563 94.2186 357.477 98.5234C353.039 103.071 347.339 107.376 340.479 111.305C333.266 115.323 324.994 118.899 315.764 122.034C315.764 122.034 315.865 122.012 315.865 121.99C304.314 125.831 291.503 128.921 278.136 131.438C258.868 134.97 238.491 137.2 217.811 138.458C205.554 139.187 193.196 139.584 180.839 139.584C168.683 139.584 156.527 139.187 144.472 138.502C127.02 137.443 109.82 135.588 93.5283 132.63C93.5283 132.63 93.4779 132.63 93.4274 132.63C89.5436 131.041 85.7607 129.385 81.9273 127.774C79.5062 126.758 77.186 125.72 74.9162 124.617C72.6464 123.535 70.5784 122.365 68.5104 121.217L68.7122 121.327C68.7122 121.327 68.5609 121.239 68.46 121.173C68.3591 121.107 68.2078 121.04 68.1069 120.974C68.2078 121.018 68.2582 121.063 68.3591 121.107C65.131 119.252 62.1046 117.332 59.3809 115.323C56.7076 113.358 54.3874 111.305 52.3194 109.186C49.1417 105.83 46.3171 102.409 43.9465 98.9428C41.5254 95.3224 39.7096 91.5916 38.499 87.8388C36.9859 82.5406 37.0363 77.1983 38.5999 71.9002C40.5166 65.9398 44.2491 60.1339 49.5452 54.5929C54.8414 49.2065 61.4994 44.0629 69.6705 39.4049C73.6048 37.1974 77.8417 35.1223 82.3812 33.1575C87.0216 31.1487 91.9647 29.2943 97.0591 27.5283C103.969 25.2103 111.283 23.0911 118.899 21.2146C126.768 19.272 134.989 17.5501 143.312 16.0048C160.209 12.9142 177.964 10.5742 196.122 9.44835C202.679 9.09514 209.236 8.87439 215.844 8.85231H215.894ZM196.071 9.44835C196.071 9.44835 195.617 9.47043 195.416 9.4925C195.617 9.4925 195.819 9.47043 196.071 9.44835ZM250.647 11.7001C250.647 11.7001 250.949 11.7442 251.101 11.7884C250.949 11.7663 250.798 11.7442 250.647 11.7001ZM342.547 115.676C350.517 111.68 357.275 107.221 362.572 102.475C368.019 97.6403 371.953 92.4967 374.122 87.1765C376.341 81.7459 376.745 76.1387 375.232 70.664C373.668 65.2334 370.743 59.8469 366.153 54.7475C361.664 49.7363 355.611 44.9901 348.701 40.5308C341.79 36.0715 333.872 31.9213 325.246 28.1022C317.025 24.4818 307.996 21.2146 298.564 18.2565C306.433 20.1109 313.948 22.2301 321.06 24.5922C333.165 28.7203 343.959 33.4887 353.341 38.7868C363.227 44.4382 371.55 50.5752 377.956 57.1096C382.697 62.0986 386.127 67.3085 387.892 72.6508C388.497 74.7479 388.901 76.8451 388.951 78.9423C389.002 81.0395 388.699 83.1367 388.094 85.2339C387.489 87.1324 386.631 89.0309 385.471 90.8852C384.311 92.7616 382.848 94.5939 381.133 96.382C377.35 100.223 372.508 103.822 366.708 107.155C359.646 111.084 351.324 114.572 342.295 117.641C337.604 119.208 332.762 120.687 327.768 122.078C333.014 120.091 337.957 117.95 342.497 115.676H342.547ZM67.0477 18.3227C67.0477 18.3227 66.745 18.4331 66.5433 18.4773C66.6946 18.4331 66.8459 18.3669 67.0477 18.3227ZM298.766 23.8637C298.766 23.8637 299.22 24.0182 299.422 24.0845C299.22 24.0182 298.968 23.9299 298.766 23.8637ZM38.4486 30.7292C38.4486 30.7292 38.1964 30.8617 38.0955 30.9279C38.1964 30.8617 38.3477 30.7955 38.4486 30.7292ZM58.9774 39.1842C54.0848 42.2085 49.747 45.3874 45.9641 48.6988C40.4157 53.5554 36.0275 58.699 33.102 63.9751C30.0757 69.3394 28.5625 74.8804 28.6634 80.4214C28.7643 85.9403 30.681 91.4371 33.7577 96.8015C35.9266 100.576 38.8521 104.263 42.1307 107.883C43.7952 109.694 45.5605 111.504 47.4772 113.27C49.4444 115.08 51.7646 116.78 54.2865 118.458C56.7076 120.069 59.3809 121.637 62.1046 123.16C64.7779 124.639 67.5521 126.052 70.5784 127.376C67.0981 126.383 63.6683 125.323 60.3897 124.219C51.7646 121.239 43.896 117.862 37.1372 114.065C31.7906 110.974 27.2511 107.663 23.7203 104.086C22.0054 102.254 20.5427 100.378 19.3321 98.4571C18.1216 96.5366 17.3145 94.5718 16.6588 92.6071C15.0952 87.2648 15.1961 81.8784 16.7597 76.5582C18.5755 70.8626 22.0558 65.3217 27.0998 60.0235C32.2446 54.7916 38.9026 49.8908 46.7711 45.3653C50.6045 43.224 54.6396 41.171 58.8765 39.1842H58.9774ZM69.5192 39.5374C69.5192 39.5374 69.2166 39.6919 69.1157 39.7802C69.267 39.6919 69.4183 39.6257 69.5192 39.5374ZM356.317 55.476C356.468 55.6084 356.569 55.7409 356.67 55.8512C356.519 55.7188 356.418 55.5863 356.317 55.476ZM10.253 61.2156C10.253 61.326 10.2026 61.4584 10.1522 61.5688C10.1522 61.4584 10.2026 61.326 10.253 61.2156ZM366.052 71.3925C366.052 71.3925 366.052 71.5028 366.102 71.5691C366.102 71.5028 366.102 71.4587 366.052 71.3925ZM387.993 72.8936C387.993 72.8936 387.993 72.9819 387.993 73.0261C387.993 72.9819 387.993 72.9378 387.993 72.8936ZM16.9615 76.1166C16.9615 76.1166 16.911 76.2933 16.8606 76.3816C16.8606 76.2933 16.911 76.2049 16.9615 76.1166ZM388.245 84.9469C388.245 84.9469 388.195 85.1456 388.144 85.2339C388.144 85.1456 388.195 85.0352 388.245 84.9469ZM38.6504 87.9271C38.6504 87.9271 38.6504 88.0816 38.7008 88.1478C38.7008 88.0816 38.7008 87.9933 38.6504 87.9271ZM16.7597 92.6513C16.7597 92.6513 16.8101 92.8279 16.8606 92.9162C16.8606 92.8279 16.8101 92.7396 16.7597 92.6513ZM52.0672 108.811C52.0672 108.811 52.2185 108.965 52.269 109.031C52.2185 108.965 52.1176 108.877 52.0672 108.811ZM340.933 111.062C340.933 111.062 340.681 111.195 340.58 111.261C340.681 111.195 340.832 111.129 340.933 111.062ZM60.5915 124.241C60.5915 124.241 60.8941 124.352 61.0958 124.396C60.9445 124.352 60.7932 124.286 60.5915 124.241ZM143.665 138.436C143.665 138.436 143.867 138.436 144.018 138.436C143.917 138.436 143.816 138.436 143.665 138.436ZM217.76 138.458C217.76 138.458 217.659 138.458 217.609 138.458C217.659 138.458 217.71 138.458 217.76 138.458ZM68.5104 121.151C68.5104 121.151 68.5104 121.173 68.5609 121.195C68.5104 121.151 68.46 121.129 68.3591 121.085C68.3591 121.085 68.4095 121.129 68.46 121.151H68.5104Z" fill="#FF5100"/>
</svg>

<svg width="397" height="144" fill="none" xmlns="http://www.w3.org/2000/svg"><path d="M154.711.199c-25.169.794-50.136 3.664-72.38 8.962-10.643 2.54-20.428 5.718-29.507 9.228-9.18 3.554-17.402 7.594-24.615 11.943-7.162 4.305-12.912 9.05-17.3 14.018C6.52 49.339 3.746 54.615 2.03 59.913-1.55 70.951-.39 82.276 5.46 93.137c2.825 5.298 7.062 10.442 12.459 15.342 5.245 4.769 11.903 9.206 19.671 13.246 7.617 3.973 16.695 7.417 26.48 10.309 9.937 2.958 20.984 5.21 32.282 6.998 11.551 1.832 23.656 3.047 35.812 3.819 12.66.795 25.472 1.17 38.233 1.148 12.71 0 25.421-.441 38.081-1.148 12.56-.728 25.069-1.678 37.376-2.936 12.156-1.236 24.16-2.737 35.913-4.57 11.752-1.81 23.252-3.951 34.298-6.49 10.593-2.428 20.782-5.254 30.264-8.455 9.432-3.179 18.158-6.755 25.573-10.839 3.783-2.075 7.213-4.282 10.239-6.6a57.162 57.162 0 007.818-7.22c4.439-5.01 6.708-10.397 7.011-15.783.151-2.693-.303-5.365-1.11-8.036-.807-2.737-2.068-5.408-3.732-8.08-3.279-5.187-8.07-10.176-13.77-14.945-5.599-4.702-12.358-9.117-19.772-13.311-7.364-4.15-15.636-7.991-24.715-11.435-9.281-3.532-19.42-6.667-30.163-9.294-10.845-2.65-22.395-4.746-34.198-6.38-8.676-1.214-17.502-2.12-26.43-2.782-1.866-.286-3.783-.573-5.649-.86-2.371-.596-4.994-1.038-7.617-1.435-2.976-.442-6.103-.729-9.23-.95a112.02 112.02 0 00-5.397-.265A540.084 540.084 0 00192.642.596a468.005 468.005 0 00-37.931-.375V.199zm14.274 4.04c3.229 0 6.457.044 9.735.132-6.557.817-13.013 1.766-19.318 2.892-5.195.927-10.39 1.854-15.636 2.76-3.329.595-6.557 1.324-9.785 2.03-4.641.994-9.332 1.943-13.871 3.025-21.588 5.143-41.461 11.611-59.216 19.05-8.776 3.688-16.998 7.683-24.16 12.01-7.112 4.283-13.014 8.919-17.705 13.797-4.892 5.122-8.372 10.552-10.188 16.05-.454-4.968.05-9.935 1.513-14.858 1.866-5.872 5.094-11.678 10.29-17.152 4.489-4.592 10.34-8.919 17.25-12.893 8.575-4.812 18.511-9.095 29.507-12.848a231.124 231.124 0 0115.182-4.48c5.548-1.436 11.349-2.672 17.25-3.776 13.871-2.516 28.498-4.128 43.378-5.033a455.263 455.263 0 0125.774-.706zm19.42 1.368c2.017-.22 4.035-.441 6.103-.618.353 0 .706.044 1.009.066.605.044 1.16.067 1.765.11-1.059.067-2.119.111-3.127.177-3.128.199-6.255.42-9.332.685 1.211-.133 2.371-.287 3.582-.42zm27.489 3.245c6.91-.022 13.77.221 20.579.596.454.022.908.067 1.312.089a423.63 423.63 0 0112.458 2.097c17.452 3.267 34.047 7.373 49.128 12.45 13.064 4.482 24.917 9.603 35.156 15.365 8.575 4.923 16.04 10.265 21.689 15.96 4.741 5.034 7.97 10.332 9.735 15.719 1.311 4.635 1.311 9.36-.05 13.996-1.514 4.613-4.338 9.095-8.424 13.4-4.438 4.547-10.138 8.852-16.998 12.781-7.213 4.018-15.485 7.594-24.715 10.729 0 0 .101-.022.101-.044-11.551 3.841-24.362 6.931-37.729 9.448-19.268 3.532-39.645 5.762-60.325 7.02-12.257.729-24.615 1.126-36.972 1.126-12.156 0-24.312-.397-36.367-1.082-17.452-1.059-34.652-2.914-50.944-5.872h-.1c-3.884-1.589-7.667-3.245-11.5-4.856a139.337 139.337 0 01-7.012-3.157c-2.27-1.082-4.338-2.252-6.406-3.4l.202.11s-.151-.088-.252-.154c-.1-.066-.252-.133-.353-.199.1.044.151.089.252.133-3.228-1.855-6.254-3.775-8.978-5.784a56.89 56.89 0 01-7.062-6.137c-3.177-3.356-6.002-6.777-8.373-10.243-2.42-3.62-4.236-7.351-5.447-11.104-1.513-5.298-1.463-10.64.1-15.939 1.918-5.96 5.65-11.766 10.946-17.307 5.296-5.387 11.954-10.53 20.126-15.188 3.934-2.208 8.17-4.283 12.71-6.248 4.64-2.008 9.584-3.863 14.678-5.629 6.91-2.318 14.224-4.437 21.84-6.313 7.869-1.943 16.09-3.665 24.413-5.21 16.897-3.09 34.652-5.43 52.81-6.557 6.557-.353 13.114-.574 19.722-.596h.05zm-19.823.596s-.454.022-.655.044c.201 0 .403-.022.655-.044zm54.576 2.252s.302.044.454.088a3.277 3.277 0 01-.454-.088zm91.9 103.976c7.97-3.996 14.728-8.455 20.025-13.201 5.447-4.835 9.381-9.978 11.55-15.298 2.219-5.431 2.623-11.038 1.11-16.513-1.564-5.43-4.489-10.817-9.079-15.916-4.489-5.012-10.542-9.758-17.452-14.217-6.911-4.46-14.829-8.61-23.455-12.429-8.221-3.62-17.25-6.887-26.682-9.846 7.869 1.855 15.384 3.974 22.496 6.336 12.105 4.128 22.899 8.897 32.281 14.195 9.886 5.651 18.209 11.788 24.615 18.323 4.741 4.989 8.171 10.198 9.936 15.54.605 2.098 1.009 4.195 1.059 6.292.051 2.098-.252 4.195-.857 6.292a24.87 24.87 0 01-2.623 5.651c-1.16 1.877-2.623 3.709-4.338 5.497-3.783 3.841-8.625 7.44-14.425 10.773-7.062 3.929-15.384 7.417-24.413 10.486a299.45 299.45 0 01-14.527 4.437c5.246-1.987 10.189-4.128 14.729-6.402h.05zm-275.5-97.353s-.302.11-.504.154c.152-.044.303-.11.505-.154zm231.719 5.54s.454.155.656.221c-.202-.066-.454-.154-.656-.22zM38.449 30.73s-.253.133-.353.199c.1-.066.252-.133.353-.199zm20.528 8.455c-4.892 3.025-9.23 6.203-13.013 9.515-5.548 4.856-9.936 10-12.862 15.276-3.026 5.364-4.54 10.905-4.439 16.446.101 5.52 2.018 11.016 5.095 16.38 2.169 3.775 5.094 7.462 8.373 11.082a91.152 91.152 0 005.346 5.387c1.967 1.81 4.288 3.51 6.81 5.188 2.42 1.611 5.094 3.179 7.818 4.702 2.673 1.479 5.447 2.892 8.473 4.216-3.48-.993-6.91-2.053-10.188-3.157-8.625-2.98-16.494-6.357-23.253-10.154-5.346-3.091-9.886-6.402-13.417-9.979-1.715-1.832-3.177-3.708-4.388-5.629-1.21-1.92-2.018-3.885-2.673-5.85-1.564-5.342-1.463-10.729.1-16.049 1.817-5.695 5.297-11.236 10.34-16.535 5.146-5.231 11.804-10.132 19.672-14.658a191.8 191.8 0 0112.105-6.18h.101zm10.542.353s-.302.155-.403.243c.151-.088.302-.154.403-.243zm286.798 15.939c.151.132.252.265.353.375-.151-.132-.252-.265-.353-.375zm-346.064 5.74c0 .11-.05.242-.1.353 0-.11.05-.243.1-.353zm355.799 10.176s0 .11.05.177c0-.066 0-.11-.05-.177zm21.941 1.502zM16.962 76.117s-.051.176-.101.265c0-.089.05-.177.1-.265zm371.283 8.83s-.05.199-.101.287c0-.088.051-.199.101-.287zM38.65 87.927s0 .155.05.22c0-.065 0-.154-.05-.22zm-21.89 4.724s.05.177.1.265c0-.088-.05-.176-.1-.265zm35.307 16.16s.151.154.202.22c-.05-.066-.151-.154-.202-.22zm288.866 2.251s-.252.133-.353.199c.101-.066.252-.132.353-.199zM60.592 124.241s.302.111.504.155c-.151-.044-.303-.11-.504-.155zm83.073 14.195h.353-.353zm74.095.022h-.151.151zM68.51 121.151s0 .022.05.044a.72.72 0 00-.2-.11s.05.044.1.066h.05z" fill="#FF5100"/></svg>
